libs/ui/packages/crypto-icons/src/svg/QTUM.svg

<svg width="24" height="24" viewBox="0 0 24 24" fill="none">
<path d="M18.6098 17.727L17.13 16.41L14.136 18.6562C14.1717 18.7347 14.1902 18.8198 14.19 18.906C14.1912 19.0621 14.1305 19.2123 14.0211 19.3236C13.9117 19.435 13.7626 19.4984 13.6065 19.5C13.4694 19.4992 13.337 19.4505 13.232 19.3623C13.1271 19.274 13.0563 19.1519 13.032 19.017H9.79951C9.77521 19.1518 9.70456 19.2738 9.59978 19.362C9.49501 19.4502 9.36271 19.499 9.22576 19.5C9.06955 19.4986 8.92027 19.4353 8.81072 19.3239C8.70117 19.2125 8.64032 19.0622 8.64151 18.906C8.64135 18.8204 8.65951 18.7358 8.69476 18.6578L6.03526 16.6777C5.92927 16.7738 5.79132 16.827 5.64826 16.827C5.49205 16.8256 5.34277 16.7623 5.23322 16.6509C5.12367 16.5395 5.06281 16.3892 5.06401 16.233C5.06401 16.008 5.18701 15.8123 5.36851 15.711L4.39126 12.591C4.30948 12.5982 4.2271 12.5883 4.14939 12.5618C4.07168 12.5353 4.00036 12.4929 3.93999 12.4373C3.87962 12.3816 3.83154 12.314 3.79883 12.2387C3.76611 12.1634 3.74949 12.0821 3.75001 12C3.74952 11.9163 3.76684 11.8335 3.80081 11.7571C3.83479 11.6806 3.88465 11.6123 3.94708 11.5566C4.00951 11.5009 4.08308 11.4592 4.1629 11.4341C4.24272 11.409 4.32695 11.4012 4.41001 11.4113L5.37076 8.2905C5.27741 8.23874 5.19968 8.16284 5.14571 8.07075C5.09175 7.97865 5.06353 7.87374 5.06401 7.767C5.06401 7.43925 5.32576 7.173 5.64826 7.173C5.79976 7.173 5.93776 7.2315 6.04126 7.3275L8.72101 5.3925C8.66888 5.30166 8.64147 5.19874 8.64151 5.094C8.64151 4.76625 8.90326 4.5 9.22576 4.5C9.51076 4.5 9.74851 4.70775 9.79951 4.983H13.032C13.0563 4.8481 13.1271 4.72596 13.232 4.63774C13.337 4.54953 13.4694 4.5008 13.6065 4.5C13.929 4.5 14.19 4.76625 14.19 5.094C14.1902 5.19344 14.1658 5.29137 14.1188 5.379L16.7813 7.3365C16.8891 7.23163 17.0336 7.17297 17.184 7.173C17.5065 7.173 17.7675 7.43925 17.7675 7.767C17.768 7.8656 17.7439 7.96278 17.6976 8.04982C17.6513 8.13686 17.5841 8.21105 17.502 8.26575L18.459 11.4075C18.5396 11.402 18.6205 11.4133 18.6966 11.4407C18.7726 11.4681 18.8421 11.5111 18.9006 11.5668C18.9592 11.6225 19.0055 11.6898 19.0366 11.7644C19.0678 11.8389 19.0831 11.9192 19.0815 12C19.0821 12.0789 19.0669 12.1572 19.0367 12.2301C19.0065 12.3031 18.962 12.3692 18.9057 12.4246C18.8495 12.48 18.7827 12.5236 18.7093 12.5527C18.6359 12.5817 18.5574 12.5958 18.4785 12.594L17.3558 16.2165L18.7935 17.496C18.9525 17.3519 19.1595 17.2722 19.374 17.2725C19.8578 17.2725 20.25 17.6715 20.25 18.1635C20.25 18.6555 19.8578 19.0545 19.374 19.0545C19.258 19.0535 19.1433 19.0297 19.0365 18.9844C18.9297 18.9391 18.8328 18.8732 18.7515 18.7904C18.6701 18.7077 18.6059 18.6097 18.5624 18.5022C18.5189 18.3946 18.497 18.2795 18.498 18.1635C18.498 18.0045 18.5385 17.856 18.6105 17.727H18.6098ZM13.656 18.3143L14.7713 15.8025C14.6797 15.7268 14.6128 15.6255 14.5793 15.5115L11.9918 15.888C11.9734 15.998 11.9245 16.1006 11.8508 16.1842L13.386 18.3555C13.4714 18.3202 13.564 18.3061 13.656 18.3143ZM13.9508 18.4268L16.8525 16.2495L15.6015 15.705C15.537 15.7904 15.4501 15.8563 15.3504 15.8954C15.2507 15.9344 15.1421 15.9451 15.0368 15.9263L13.932 18.4132C13.9383 18.4174 13.9446 18.4216 13.9508 18.426V18.4268ZM13.152 18.5325L11.607 16.3485C11.4833 16.3922 11.3483 16.3922 11.2245 16.3485L9.67951 18.5325C9.72425 18.5884 9.75855 18.6519 9.78076 18.72H13.0508C13.073 18.6519 13.1073 18.5884 13.152 18.5325ZM18.198 12.51C18.1108 12.4566 18.0389 12.3816 17.9891 12.2922C17.9393 12.2029 17.9134 12.1023 17.9138 12C17.9138 11.79 18.0203 11.6062 18.1815 11.5005L17.277 8.5305L17.0745 11.436C17.307 11.514 17.4758 11.7368 17.4758 12C17.4763 12.1234 17.4384 12.2439 17.3673 12.3447C17.2962 12.4455 17.1954 12.5216 17.079 12.5625L17.2785 15.477L18.198 12.51ZM16.5075 11.5522L15.3195 9.2235C15.2227 9.25552 15.1192 9.26121 15.0195 9.24L13.9755 11.5402C14.0428 11.5964 14.097 11.6667 14.134 11.7462C14.1711 11.8257 14.1902 11.9123 14.19 12C14.1902 12.0891 14.1704 12.1771 14.1321 12.2576C14.0938 12.338 14.038 12.4089 13.9688 12.465L15.045 14.7555C15.1223 14.7427 15.2014 14.7458 15.2775 14.7645L16.4918 12.432C16.4334 12.3762 16.387 12.3092 16.3552 12.2349C16.3235 12.1607 16.3072 12.0807 16.3073 12C16.3073 11.8215 16.3853 11.661 16.5075 11.5522ZM16.788 12.585C16.7744 12.5825 16.7609 12.5795 16.7475 12.576L15.5348 14.904C15.6059 14.9705 15.6597 15.0533 15.6915 15.1454C15.7232 15.2374 15.732 15.3358 15.717 15.432L17.022 16.0005L16.788 12.585ZM16.7835 11.4165L16.998 8.331C16.885 8.29213 16.7866 8.21964 16.716 8.12325L15.7125 8.5425C15.7301 8.63478 15.726 8.72987 15.7007 8.82032C15.6753 8.91076 15.6293 8.99409 15.5663 9.06375L16.7693 11.4188C16.774 11.4179 16.7788 11.4172 16.7835 11.4165ZM13.7025 12.5865C13.6188 12.6005 13.533 12.5959 13.4513 12.573L11.859 15.4005C11.9067 15.4568 11.9435 15.5214 11.9678 15.591L14.5688 15.213C14.5988 15.0773 14.6738 14.958 14.7773 14.8755L13.7025 12.585V12.5865ZM13.71 11.4157L14.7578 9.108C14.6513 9.01444 14.5816 8.88602 14.5613 8.74575L11.955 8.367C11.9263 8.43699 11.8846 8.50088 11.832 8.55525L13.4363 11.4315C13.5251 11.4041 13.6193 11.3987 13.7108 11.4157H13.71ZM13.1985 12.4252C13.1425 12.3696 13.098 12.3033 13.0678 12.2303C13.0375 12.1573 13.022 12.079 13.0223 12C13.0223 11.8395 13.0853 11.6933 13.1873 11.5868L11.5823 8.70825C11.4928 8.73536 11.3981 8.74025 11.3063 8.7225L9.65101 11.5927C9.75354 11.7036 9.81034 11.849 9.81001 12C9.81048 12.1567 9.74933 12.3073 9.63976 12.4193L11.2658 15.213C11.3822 15.1817 11.5055 15.1878 11.6183 15.2302L13.1985 12.4252ZM4.66576 12.489L5.59726 15.4635L5.81701 12.5805C5.6857 12.5505 5.56853 12.4766 5.48482 12.3711C5.40111 12.2656 5.35586 12.1347 5.35651 12C5.35582 11.8636 5.40223 11.7311 5.48791 11.6249C5.57358 11.5187 5.69327 11.4454 5.82676 11.4172L5.59951 8.54175L4.68226 11.523C4.7559 11.5788 4.81557 11.6509 4.85657 11.7337C4.89757 11.8165 4.91877 11.9076 4.91851 12C4.91851 12.2025 4.81801 12.3825 4.66576 12.489ZM7.58176 14.7585C7.66831 14.7415 7.75759 14.7446 7.84276 14.7675L8.87026 12.4717C8.79875 12.4157 8.74097 12.3441 8.70133 12.2623C8.66169 12.1806 8.64123 12.0909 8.64151 12C8.64151 11.814 8.72551 11.6482 8.85676 11.5395L7.81276 9.24C7.74067 9.25521 7.66633 9.25648 7.59376 9.24375L6.33451 11.562C6.39471 11.618 6.44269 11.6858 6.47547 11.7611C6.50825 11.8365 6.52512 11.9178 6.52501 12C6.52525 12.0799 6.50944 12.1591 6.47852 12.2328C6.4476 12.3064 6.4022 12.3732 6.34501 12.429L7.58251 14.7585H7.58176ZM7.82476 15.921C7.71788 15.9461 7.60605 15.9402 7.50242 15.9039C7.39879 15.8676 7.30767 15.8025 7.23976 15.7162L6.22726 16.1572C6.23875 16.2495 6.229 16.3431 6.19876 16.431L8.88001 18.4275C8.88787 18.4215 8.89587 18.4158 8.90401 18.4103L7.82401 15.9202L7.82476 15.921ZM7.11751 15.4462C7.09885 15.3434 7.10753 15.2374 7.14267 15.139C7.17781 15.0405 7.23819 14.953 7.31776 14.8853L6.10801 12.609L5.87326 15.684C5.97169 15.7261 6.05675 15.7943 6.11926 15.8812L7.11751 15.4462ZM8.26501 15.222L10.8638 15.5925C10.894 15.504 10.9446 15.4238 11.0115 15.3585L9.38851 12.5707C9.30778 12.5947 9.22278 12.6005 9.13951 12.588L8.09701 14.9137C8.18287 14.9972 8.24144 15.1046 8.26501 15.222ZM8.25001 15.5198C8.21873 15.6204 8.16127 15.711 8.08351 15.7822L9.18076 18.3135C9.27108 18.3067 9.36173 18.3211 9.44551 18.3555L10.9815 16.1842C10.908 16.101 10.8592 15.999 10.8405 15.8895L8.25001 15.5198ZM7.12276 8.52825L6.12451 8.11125C6.0619 8.2012 5.9754 8.27185 5.87476 8.31525L6.11476 11.3535L7.32676 9.1215C7.24119 9.05135 7.1768 8.95879 7.14078 8.85417C7.10475 8.74954 7.09852 8.63696 7.12276 8.529V8.52825ZM7.83526 8.082L8.86651 5.652L6.20176 7.5765C6.22929 7.65928 6.2385 7.74706 6.22876 7.83375L7.25626 8.2635C7.32648 8.18258 7.41781 8.12275 7.52004 8.0907C7.62228 8.05866 7.73141 8.05564 7.83526 8.082ZM8.27176 8.73675C8.25327 8.88034 8.18316 9.0123 8.07451 9.108L9.12151 11.4157C9.2161 11.3983 9.31355 11.4047 9.40501 11.4345L11.0415 8.595C10.9689 8.53285 10.9123 8.45413 10.8765 8.3655L8.27176 8.73675ZM8.09176 8.22525C8.15476 8.28525 8.20426 8.3595 8.23651 8.442L10.8353 8.0715C10.8472 7.96289 10.8887 7.85964 10.9553 7.773L9.46276 5.637C9.37122 5.6786 9.27035 5.69541 9.17026 5.68575L8.09251 8.22525H8.09176ZM15.084 8.067C15.1781 8.05829 15.2729 8.07266 15.3602 8.10886C15.4475 8.14506 15.5247 8.202 15.585 8.27475L16.605 7.84875C16.5934 7.76145 16.6008 7.67266 16.6268 7.5885L13.98 5.643L15.0833 8.067H15.084ZM14.592 8.4495C14.6341 8.33577 14.71 8.23763 14.8095 8.16825L13.677 5.6835C13.5722 5.69626 13.4659 5.68018 13.3695 5.637L11.877 7.773C11.9434 7.86033 11.9848 7.964 11.997 8.073L14.592 8.45025V8.4495ZM13.14 5.4525C13.1013 5.40021 13.0714 5.34194 13.0515 5.28H9.78001C9.75989 5.34199 9.72974 5.40026 9.69076 5.4525L11.1863 7.59225C11.2584 7.56087 11.3363 7.54468 11.415 7.54468C11.4937 7.54468 11.5716 7.56087 11.6438 7.59225L13.14 5.4525Z" fill="#2E9AD0"/>
</svg>

<svg width="24" height="24" viewBox="0 0 24 24" fill="none"><path fill="#2e9ad0" d="m18.61 17.727-1.48-1.317-2.994 2.246a.6.6 0 0 1-.115.668.6.6 0 0 1-.415.176.59.59 0 0 1-.574-.483H9.8a.59.59 0 0 1-.574.483.59.59 0 0 1-.584-.594.6.6 0 0 1 .053-.248l-2.66-1.98a.576.576 0 0 1-.802-.027.597.597 0 0 1 .135-.94l-.977-3.12A.59.59 0 0 1 3.75 12a.59.59 0 0 1 .66-.589l.96-3.12a.6.6 0 0 1-.306-.524.59.59 0 0 1 .584-.594c.152 0 .29.058.393.154l2.68-1.934a.6.6 0 0 1-.08-.299.59.59 0 0 1 .585-.594c.285 0 .523.208.574.483h3.232a.59.59 0 0 1 .575-.483c.322 0 .583.266.583.594a.6.6 0 0 1-.071.285l2.662 1.958a.58.58 0 0 1 .403-.164c.322 0 .583.266.583.594a.6.6 0 0 1-.265.499l.957 3.142a.584.584 0 0 1 .622.592.59.59 0 0 1-.602.594l-1.123 3.623 1.438 1.279a.86.86 0 0 1 .58-.223c.484 0 .876.399.876.89a.884.884 0 0 1-.876.892.884.884 0 0 1-.876-.892.9.9 0 0 1 .112-.436m-4.954.587 1.115-2.511a.6.6 0 0 1-.192-.292l-2.587.377a.6.6 0 0 1-.141.296l1.535 2.171a.6.6 0 0 1 .27-.04m.295.113 2.901-2.177-1.25-.545a.58.58 0 0 1-.565.221l-1.105 2.487zm-.799.105-1.545-2.183a.57.57 0 0 1-.382 0L9.68 18.532q.067.085.1.188h3.27a.6.6 0 0 1 .102-.187m5.046-6.022a.6.6 0 0 1-.284-.51c0-.21.106-.394.267-.5l-.904-2.97-.203 2.906c.233.078.402.3.402.564a.59.59 0 0 1-.397.563l.2 2.914zm-1.69-.958L15.32 9.224a.6.6 0 0 1-.3.016l-1.044 2.3a.596.596 0 0 1 .156.718.6.6 0 0 1-.163.207l1.076 2.29a.6.6 0 0 1 .232.01l1.215-2.333a.6.6 0 0 1 .015-.88m.28 1.033-.04-.009-1.213 2.328a.6.6 0 0 1 .182.528l1.305.568zm-.005-1.169.215-3.085a.6.6 0 0 1-.282-.208l-1.004.42a.6.6 0 0 1-.146.52l1.203 2.356zm-3.08 1.17a.6.6 0 0 1-.252-.013L11.86 15.4q.072.086.109.191l2.6-.378a.6.6 0 0 1 .21-.337zm.007-1.17 1.048-2.308a.6.6 0 0 1-.197-.362l-2.606-.379a.6.6 0 0 1-.123.188l1.604 2.877a.6.6 0 0 1 .275-.016zm-.512 1.01a.6.6 0 0 1-.176-.426c0-.16.063-.307.165-.413l-1.605-2.879a.6.6 0 0 1-.276.014l-1.655 2.87a.6.6 0 0 1-.011.827l1.626 2.794a.6.6 0 0 1 .352.017zm-8.532.063.931 2.974.22-2.882a.59.59 0 0 1-.46-.581.59.59 0 0 1 .47-.583L5.6 8.542l-.918 2.981A.6.6 0 0 1 4.92 12a.6.6 0 0 1-.253.489m2.916 2.27a.6.6 0 0 1 .26.008l1.028-2.295A.6.6 0 0 1 8.642 12c0-.186.084-.352.215-.46l-1.044-2.3a.6.6 0 0 1-.22.004l-1.258 2.318a.6.6 0 0 1 .01.867zm.243 1.162a.58.58 0 0 1-.585-.205l-1.013.441a.6.6 0 0 1-.028.274l2.681 1.996.024-.017zm-.707-.475a.6.6 0 0 1 .2-.56l-1.21-2.277-.235 3.075a.6.6 0 0 1 .246.197zm1.147-.224 2.599.37a.6.6 0 0 1 .147-.234L9.39 12.572a.6.6 0 0 1-.25.017l-1.042 2.326a.6.6 0 0 1 .168.308m-.015.298a.6.6 0 0 1-.166.262l1.097 2.532a.6.6 0 0 1 .265.041l1.536-2.17a.6.6 0 0 1-.141-.295zM7.123 8.528l-.998-.417a.6.6 0 0 1-.25.204l.24 3.039 1.212-2.232a.6.6 0 0 1-.204-.593m.712-.446 1.032-2.43-2.665 1.925q.041.125.027.257l1.027.43a.58.58 0 0 1 .58-.182m.437.655a.6.6 0 0 1-.197.371l1.047 2.308a.6.6 0 0 1 .283.018l1.636-2.839a.6.6 0 0 1-.165-.23zm-.18-.512q.095.092.145.217l2.598-.37a.6.6 0 0 1 .12-.299L9.463 5.637a.6.6 0 0 1-.293.049zm6.992-.158a.58.58 0 0 1 .501.208l1.02-.426a.6.6 0 0 1 .022-.26L13.98 5.643zm-.492.383a.6.6 0 0 1 .217-.282l-1.132-2.484a.6.6 0 0 1-.307-.047l-1.493 2.136a.6.6 0 0 1 .12.3zM13.14 5.453a.6.6 0 0 1-.088-.173H9.78a.6.6 0 0 1-.09.172l1.496 2.14a.57.57 0 0 1 .458 0z"/></svg>
